dist/img/svg/youtube.svg

<svg width="16" height="16" viewBox="0 0 16 16" fill="none" xmlns="http://www.w3.org/2000/svg">
<path d="M15.6704 4.15131C15.4859 3.46598 14.9456 2.92562 14.2602 2.7411C13.0082 2.39844 7.99997 2.39844 7.99997 2.39844C7.99997 2.39844 2.99175 2.39844 1.7397 2.72793C1.06754 2.91244 0.514001 3.46598 0.329488 4.15131C0 5.40337 0 7.99973 0 7.99973C0 7.99973 0 10.6093 0.329488 11.8481C0.514001 12.5335 1.05436 13.0738 1.7397 13.2584C3.00493 13.601 7.99997 13.601 7.99997 13.601C7.99997 13.601 13.0082 13.601 14.2602 13.2715C14.9456 13.087 15.4859 12.5467 15.6704 11.8613C15.9999 10.6093 15.9999 8.01291 15.9999 8.01291C15.9999 8.01291 16.0131 5.40337 15.6704 4.15131Z" fill="white"/>
<path d="M6.4043 10.3989L10.569 8.00023L6.4043 5.60156V10.3989Z" fill="#D3D3D3"/>
</svg>

<svg width="16" height="16" viewBox="0 0 16 16" fill="none" xmlns="http://www.w3.org/2000/svg"><path d="M15.67 4.151a2.005 2.005 0 00-1.41-1.41C13.008 2.398 8 2.398 8 2.398s-5.008 0-6.26.33A2.046 2.046 0 00.33 4.15C0 5.403 0 8 0 8s0 2.61.33 3.848a2.005 2.005 0 001.41 1.41c1.265.343 6.26.343 6.26.343s5.008 0 6.26-.33a2.004 2.004 0 001.41-1.41C16 10.61 16 8.013 16 8.013s.013-2.61-.33-3.862z" fill="#fff"/><path d="M6.404 10.399L10.57 8 6.404 5.602v4.797z" fill="#D3D3D3"/></svg>
